src/assets/images/prince.svg

<svg width="51" height="133" viewBox="0 0 51 133" fill="none" xmlns="http://www.w3.org/2000/svg">
<path d="M46.6822 10.6242V127.888C46.6822 129.384 45.4701 130.615 43.9551 130.615H7.026C5.5299 130.615 4.29893 129.403 4.29893 127.888V10.6242H46.6822ZM2.42407 8.73041V127.888C2.42407 130.426 4.48831 132.509 7.04494 132.509H43.974C46.5117 132.509 48.5949 130.445 48.5949 127.888V8.73041H2.42407Z" fill="black"/>
<path d="M0 0H51V5.37839H0V0Z" fill="black"/>
<path d="M22.5551 30.7742H23.8619C24.9034 30.7742 25.7367 30.8121 26.3617 30.9068C26.9866 31.0015 27.5358 31.2666 28.0093 31.7211C28.4827 32.1756 28.7289 32.8953 28.7289 33.899C28.7289 34.808 28.5206 35.4898 28.1229 35.9632C27.7252 36.4367 27.2328 36.7397 26.6457 36.8723C26.0587 37.0238 25.3769 37.0806 24.6194 37.0806V41.0954L22.5741 41.2659V30.7742H22.5551ZM24.9413 35.433C25.4716 35.433 25.9072 35.3194 26.2102 35.0921C26.5132 34.8648 26.6836 34.4671 26.6836 33.8801C26.6836 33.293 26.5321 32.8953 26.248 32.7059C25.964 32.4976 25.5095 32.4029 24.8845 32.4029H24.6004V35.433H24.9413Z" fill="black"/>
<path d="M25.1496 50.4697H24.3542V54.9391L22.3279 55.1095V44.7126L24.7898 44.6368C25.9829 44.6368 26.9109 44.883 27.5926 45.3565C28.2744 45.8299 28.5964 46.5685 28.5964 47.5344C28.5964 48.1782 28.4638 48.7085 28.2176 49.1251C27.9714 49.5418 27.5926 49.8827 27.1192 50.1667L28.0472 52.4203L28.9941 54.674L27.0056 55.2232L25.1496 50.4697ZM25.036 48.9736C25.5095 48.9736 25.8882 48.8789 26.1723 48.6706C26.4374 48.4813 26.5889 48.1025 26.5889 47.5344C26.5889 46.6821 26.1723 46.2466 25.3201 46.2466H24.3732V48.9547H25.036V48.9736Z" fill="black"/>
<path d="M24.2596 68.9722V58.6699L26.3049 58.4994V68.8017L24.2596 68.9722Z" fill="black"/>
<path d="M26.8541 82.8158L23.824 76.3201V82.6454L22.0059 82.7211V72.4189L24.127 72.3431L26.8162 78.5169V72.4946L28.5395 72.3242V82.6264L26.8541 82.8158Z" fill="black"/>
<path d="M22.9339 95.1634C22.4415 94.0839 22.2143 92.7583 22.2143 91.1675C22.2143 90.3153 22.3279 89.5009 22.5551 88.7055C22.7824 87.9291 23.1422 87.2663 23.6346 86.7549C24.127 86.2436 24.7519 85.9785 25.5095 85.9785C26.0965 85.9785 26.6079 86.1678 27.0434 86.5277C27.479 86.8875 27.8199 87.3609 28.0472 87.9291C28.2744 88.4972 28.407 89.1032 28.407 89.7471L26.4374 89.8418C26.4374 89.4252 26.3617 88.9517 26.2291 88.4215C26.0965 87.8912 25.8125 87.6261 25.3958 87.6261C24.9603 87.6261 24.6573 87.967 24.4868 88.6677C24.3164 89.3684 24.2406 90.1827 24.2406 91.1675C24.2406 92.3606 24.3353 93.3264 24.5247 94.065C24.7141 94.7846 25.0739 95.1445 25.5852 95.1445C25.945 95.1445 26.2102 94.9172 26.3806 94.4816C26.5321 94.0461 26.6457 93.5158 26.6836 92.8908L28.407 93.0613C28.407 93.7241 28.2933 94.3491 28.0661 94.9172C27.8388 95.4853 27.5169 95.9398 27.0624 96.2807C26.6268 96.6216 26.0776 96.7921 25.4337 96.7921C24.2596 96.7921 23.4263 96.2429 22.9339 95.1634Z" fill="black"/>
<path d="M22.896 110.446V100.049H28.1797L28.0093 101.678H24.9413V104.159H27.1381L27.1192 105.901H24.9413V108.818H28.2933L28.1229 110.446H22.896Z" fill="black"/>
</svg>

<svg width="51" height="133" fill="none" xmlns="http://www.w3.org/2000/svg"><path d="M46.682 10.624v117.264a2.728 2.728 0 0 1-2.727 2.727H7.026a2.728 2.728 0 0 1-2.727-2.727V10.624h42.383ZM2.424 8.73v119.158a4.627 4.627 0 0 0 4.62 4.621h36.93a4.627 4.627 0 0 0 4.62-4.621V8.73H2.425ZM0 0h51v5.378H0V0Z" fill="#000"/><path d="M22.555 30.774h1.307c1.041 0 1.875.038 2.5.133s1.174.36 1.647.814c.474.455.72 1.174.72 2.178 0 .909-.208 1.59-.606 2.064s-.89.777-1.477.91c-.587.15-1.27.208-2.027.208v4.014l-2.045.17v-10.49h-.019Zm2.386 4.659c.53 0 .966-.114 1.27-.34.302-.228.473-.626.473-1.213 0-.587-.152-.985-.436-1.174-.284-.208-.739-.303-1.364-.303H24.6v3.03h.341ZM25.15 50.47h-.796v4.47l-2.026.17V44.712l2.462-.076c1.193 0 2.12.246 2.803.72.681.473 1.003 1.212 1.003 2.177 0 .644-.132 1.175-.378 1.591-.247.417-.625.758-1.099 1.042l.928 2.253.947 2.254-1.988.55-1.856-4.754Zm-.114-1.496c.473 0 .852-.095 1.136-.303.265-.19.417-.569.417-1.137 0-.852-.417-1.287-1.269-1.287h-.947v2.708h.663v.019ZM24.26 68.972V58.67l2.045-.17v10.302l-2.045.17ZM26.854 82.816l-3.03-6.496v6.325l-1.818.076V72.42l2.121-.076 2.69 6.174v-6.022l1.723-.17v10.301l-1.686.19ZM22.934 95.163c-.492-1.08-.72-2.405-.72-3.995 0-.853.114-1.667.341-2.463.227-.776.587-1.439 1.08-1.95.492-.511 1.117-.776 1.874-.776.587 0 1.099.189 1.534.549.436.36.777.833 1.004 1.401.227.568.36 1.174.36 1.818l-1.97.095c0-.417-.075-.89-.208-1.42-.133-.53-.416-.796-.833-.796-.436 0-.739.341-.91 1.042-.17.7-.245 1.515-.245 2.5 0 1.193.094 2.158.284 2.897.19.72.549 1.08 1.06 1.08.36 0 .625-.228.796-.663.151-.436.265-.966.303-1.591l1.723.17c0 .663-.114 1.288-.34 1.856-.228.568-.55 1.023-1.005 1.364-.435.34-.984.511-1.628.511-1.174 0-2.008-.55-2.5-1.629ZM22.896 110.446v-10.397h5.284l-.17 1.629H24.94v2.481h2.197l-.019 1.742h-2.178v2.917h3.352l-.17 1.628h-5.227Z" fill="#000"/></svg>
